X: 15184
T: Gilles Le Bigot's
R: three-two
M: 3/2
K: Eminor
M:3/4
|:EF GB A2|GA BG FG|EF GB A2|GA BG E2:|
|:c2 Ac BA|GF EF GB|c2 Ac BA|GF GB A2:|

